outputs/icons/communication/gif_round.svg

<svg xmlns="http://www.w3.org/2000/svg" width="1200" height="1200" fill="none"><path fill="#000" d="M451.894 702h1.6v43.2h45.6v-152H393.493v44.4h54.801v18q0 12.001-4.8 20.8t-12.8 14.8q-8 5.999-18.801 9.2-10.799 2.799-23.199 2.8-31.6 0-50.4-19.2t-18.8-56v-44.8q0-37.199 18.4-56 18.8-19.2 50-19.2 25.2 0 40 12 15.2 12 22.8 30l42.8-25.2q-15.2-30.8-41.6-47.2t-64-16.4q-28 0-50.8 9.6t-39.2 28q-16.4 18.397-25.6 45.6c-5.867 17.865-8.8 38.535-8.8 62s2.933 44.135 8.8 62 13.867 32.935 24 45.2q15.599 17.999 36.4 27.2 21.2 9.201 46 9.2 31.6-.001 50.4-13.6 19.2-14.001 22.8-34.4M556.66 702.8v42.4h126.8v-42.4h-37.2V508.4h37.2V466h-126.8v42.4h36.8v194.4zM745.4 466v279.2h52.8v-118h110.4v-46.8H798.2v-67.6H925V466z"/><path fill="#000" fill-rule="evenodd" d="M100 400c0-165.686 134.314-300 300-300h400c165.685 0 300 134.314 300 300v400c0 165.685-134.315 300-300 300H400c-165.686 0-300-134.315-300-300zm300-200h400c110.455 0 200 89.543 200 200v400c0 110.455-89.545 200-200 200H400c-110.457 0-200-89.545-200-200V400c0-110.457 89.543-200 200-200"/></svg>

<svg width="1200" height="1200" viewBox="0 0 1200 1200" fill="none" xmlns="http://www.w3.org/2000/svg"><path d="M451.894 702H453.494V745.2H499.094V593.2H393.493V637.6H448.294V655.6C448.294 663.6 446.694 670.535 443.494 676.4C440.294 682.265 436.027 687.2 430.694 691.2C425.361 695.2 419.094 698.265 411.893 700.4C404.694 702.265 396.961 703.2 388.694 703.2C367.627 703.2 350.827 696.8 338.294 684C325.76 671.2 319.494 652.535 319.494 628V583.2C319.494 558.4 325.627 539.735 337.894 527.2C350.427 514.4 367.094 508 387.894 508C404.694 508 418.027 512 427.894 520C438.027 528 445.627 538 450.694 550L493.494 524.8C483.361 504.265 469.494 488.534 451.894 477.6C434.294 466.666 412.96 461.2 387.894 461.2C369.227 461.2 352.294 464.4 337.094 470.8C321.894 477.2 308.827 486.534 297.894 498.8C286.961 511.065 278.427 526.265 272.294 544.4C266.427 562.265 263.494 582.935 263.494 606.4C263.494 629.865 266.427 650.535 272.294 668.4C278.161 686.265 286.161 701.335 296.294 713.6C306.693 725.6 318.827 734.665 332.694 740.8C346.827 746.935 362.161 750 378.694 750C399.76 750 416.561 745.465 429.094 736.4C441.894 727.065 449.494 715.6 451.894 702Z" fill="black"/><path d="M556.66 702.8V745.2H683.46V702.8H646.26V508.4H683.46V466H556.66V508.4H593.46V702.8H556.66Z" fill="black"/><path d="M745.4 466V745.2H798.2V627.2H908.6V580.4H798.2V512.8H925V466H745.4Z" fill="black"/><path fill-rule="evenodd" d="M100 400C100 234.314 234.314 100 400 100H800C965.685 100 1100 234.314 1100 400V800C1100 965.685 965.685 1100 800 1100H400C234.314 1100 100 965.685 100 800V400ZM400 200H800C910.455 200 1000 289.543 1000 400V800C1000 910.455 910.455 1000 800 1000H400C289.543 1000 200 910.455 200 800V400C200 289.543 289.543 200 400 200Z" fill="black"/></svg>
